rospo-light/32x32/apps/syncthing-gtk.svg

<?xml version="1.0" encoding="UTF-8" standalone="no"?>
<svg xmlns="http://www.w3.org/2000/svg" height="32" width="32" version="1">
 <rect transform="matrix(0,-1,-1,0,0,0)" rx="14" ry="14" height="28" width="28" y="-30" x="-30" fill="#1ca4d4"/>
 <path opacity=".2" d="m16 7a10 10 0 0 0 -10 10 10 10 0 0 0 10 10 10 10 0 0 0 10 -10 10 10 0 0 0 -0.615 -3.414l0.02148-0.01563-0.05273-0.07422a10 10 0 0 0 -9.354 -6.496zm0 1a9 9 0 0 1 7.9883 4.8613l-6.24 4.459-10.646 0.967a9 9 0 0 1 -0.102 -1.287 9 9 0 0 1 9 -9zm8.5391 6.1895a9 9 0 0 1 0.461 2.81 9 9 0 0 1 -2.607 6.326l-3.4336-5.1504 5.5801-3.9863zm-6.8906 4.5449 3.6738 5.5098a9 9 0 0 1 -5.322 1.755 9 9 0 0 1 -8.5859 -6.334l10.234-0.932z"/>
 <path fill="#fff" d="m16 6a10 10 0 0 0 -10 10 10 10 0 0 0 10 10 10 10 0 0 0 10 -10 10 10 0 0 0 -0.615 -3.414l0.021-0.016-0.052-0.074a10 10 0 0 0 -9.354 -6.496zm0 1a9 9 0 0 1 7.988 4.861l-6.24 4.459-10.646 0.967a9 9 0 0 1 -0.102 -1.287 9 9 0 0 1 9 -9zm8.539 6.189a9 9 0 0 1 0.461 2.811 9 9 0 0 1 -2.607 6.326l-3.434-5.15 5.58-3.987zm-6.891 4.545l3.674 5.51a9 9 0 0 1 -5.322 1.756 9 9 0 0 1 -8.5859 -6.334l10.234-0.932z"/>
 <g opacity=".2" transform="translate(0,1)">
  <circle opacity="1" cy="18" cx="7" r="2"/>
  <circle opacity="1" cy="23" cx="22" r="2"/>
  <circle opacity="1" cy="12" cx="25" r="2"/>
  <circle opacity="1" cy="17" cx="18" r="2"/>
 </g>
 <g fill="#fff">
  <circle cy="18" cx="7" r="2"/>
  <circle cy="23" cx="22" r="2"/>
  <circle cy="12" cx="25" r="2"/>
  <circle cy="17" cx="18" r="2"/>
 </g>
 <path opacity=".2" fill="#fff" d="m16 2c-7.756 0-14 6.244-14 14 0 0.169 0.0195 0.333 0.0254 0.5 0.2637-7.5206 6.3874-13.5 13.975-13.5 7.587 0 13.711 5.9794 13.975 13.5 0.005-0.167 0.025-0.331 0.025-0.5 0-7.756-6.244-14-14-14z"/>
 <path opacity=".2" d="m2.0254 16.5c-0.0059 0.167-0.0254 0.331-0.0254 0.5 0 7.756 6.244 14 14 14s14-6.244 14-14c0-0.16884-0.01952-0.33264-0.02539-0.5-0.264 7.521-6.388 13.5-13.975 13.5-7.5872 0-13.711-5.979-13.975-13.5z"/>
</svg>

<?xml version="1.0" encoding="UTF-8" standalone="no"?>
<svg
   xmlns:dc="http://purl.org/dc/elements/1.1/"
   xmlns:cc="http://creativecommons.org/ns#"
   xmlns:rdf="http://www.w3.org/1999/02/22-rdf-syntax-ns#"
   xmlns:svg="http://www.w3.org/2000/svg"
   xmlns="http://www.w3.org/2000/svg"
   xmlns:sodipodi="http://sodipodi.sourceforge.net/DTD/sodipodi-0.dtd"
   xmlns:inkscape="http://www.inkscape.org/namespaces/inkscape"
   height="32"
   width="32"
   version="1"
   id="svg32"
   sodipodi:docname="syncthing-gtk.svg"
   inkscape:version="0.92.1 r">
  <metadata
     id="metadata38">
    <rdf:RDF>
      <cc:Work
         rdf:about="">
        <dc:format>image/svg+xml</dc:format>
        <dc:type
           rdf:resource="http://purl.org/dc/dcmitype/StillImage" />
      </cc:Work>
    </rdf:RDF>
  </metadata>
  <defs
     id="defs36" />
  <sodipodi:namedview
     pagecolor="#ffffff"
     bordercolor="#666666"
     borderopacity="1"
     objecttolerance="10"
     gridtolerance="10"
     guidetolerance="10"
     inkscape:pageopacity="0"
     inkscape:pageshadow="2"
     inkscape:window-width="640"
     inkscape:window-height="480"
     id="namedview34"
     showgrid="false"
     inkscape:zoom="8.375"
     inkscape:cx="-14.725085"
     inkscape:cy="36.943245"
     inkscape:current-layer="svg32" />
  <rect
     style="opacity:1;fill:#0083c4;fill-opacity:1;fill-rule:evenodd;stroke:none;stroke-width:1.03534329;stroke-linecap:round;stroke-linejoin:bevel;stroke-miterlimit:4;stroke-dasharray:none;stroke-dashoffset:0;stroke-opacity:1"
     id="rect4497-3-3"
     width="28.203388"
     height="28.203388"
     x="1.8983059"
     y="1.8983059"
     ry="5.575182" />
  <g
     id="g4528"
     transform="matrix(0.80383795,0,0,0.80383795,3.1385928,3.1385928)"
     style="stroke-width:1.24403179">
    <rect
       id="rect2"
       x="-30"
       y="-30"
       width="28"
       height="28"
       ry="14"
       rx="14"
       transform="matrix(0,-1,-1,0,0,0)"
       style="fill:#1ca4d4;stroke-width:1.24403179" />
    <path
       id="path6"
       d="M 16,6 A 10,10 0 0 0 6,16 10,10 0 0 0 16,26 10,10 0 0 0 26,16 10,10 0 0 0 25.385,12.586 L 25.406,12.57 25.354,12.496 A 10,10 0 0 0 16,6 Z m 0,1 a 9,9 0 0 1 7.988,4.861 L 17.748,16.32 7.102,17.287 A 9,9 0 0 1 7,16 9,9 0 0 1 16,7 Z m 8.539,6.189 A 9,9 0 0 1 25,16 9,9 0 0 1 22.393,22.326 l -3.434,-5.15 z m -6.891,4.545 3.674,5.51 A 9,9 0 0 1 16,25 9,9 0 0 1 7.4141,18.666 l 10.234,-0.932 z"
       inkscape:connector-curvature="0"
       style="fill:#ffffff;stroke-width:1.24403179" />
    <g
       id="g26"
       style="fill:#ffffff;stroke-width:1.24403179">
      <circle
         id="circle18"
         r="2"
         cx="7"
         cy="18"
         style="stroke-width:1.24403179" />
      <circle
         id="circle20"
         r="2"
         cx="22"
         cy="23"
         style="stroke-width:1.24403179" />
      <circle
         id="circle22"
         r="2"
         cx="25"
         cy="12"
         style="stroke-width:1.24403179" />
      <circle
         id="circle24"
         r="2"
         cx="18"
         cy="17"
         style="stroke-width:1.24403179" />
    </g>
  </g>
</svg>
